freebsd.svg

<svg fill="currentColor" viewBox="0 0 24 24"><path d="M2.69 2c.85-.05 3.39 1.16 3.44 1.19-1.29.81-2.39 1.9-3.22 3.19C2.09 4.81 1.34 2.91 2 2.25c.17-.17.4-.25.69-.25m18.15.13c.41-.05.74.01.94.21 1.07 1.08-1.9 5.81-2.4 6.32-.51.5-1.81.04-2.88-1.03-1.07-1.08-1.53-2.37-1.03-2.88.41-.41 3.62-2.45 5.37-2.62M12 2.56c1.29 0 2.53.26 3.66.72-.49.32-.85.57-.97.69-.99.99-.55 2.86 1.03 4.44.98.97 2.12 1.56 3.06 1.56.68 0 1.14-.29 1.38-.53.17-.17.44-.56.75-1.03.51 1.18.78 2.47.78 3.84 0 5.36-4.33 9.72-9.69 9.72s-9.69-4.36-9.69-9.72A9.68 9.68 0 0 1 12 2.56"/></svg>

<svg  viewBox="0 0 24 24" fill="currentColor"><path  d="M2.69,2C3.54,1.95 6.08,3.16 6.13,3.19C4.84,4 3.74,5.09 2.91,6.38C2.09,4.81 1.34,2.91 2,2.25C2.17,2.08 2.4,2 2.69,2M20.84,2.13C21.25,2.08 21.58,2.14 21.78,2.34C22.85,3.42 19.88,8.15 19.38,8.66C18.87,9.16 17.57,8.7 16.5,7.63C15.43,6.55 14.97,5.26 15.47,4.75C15.88,4.34 19.09,2.3 20.84,2.13M12,2.56C13.29,2.56 14.53,2.82 15.66,3.28C15.17,3.6 14.81,3.85 14.69,3.97C13.7,4.96 14.14,6.83 15.72,8.41C16.7,9.38 17.84,9.97 18.78,9.97C19.46,9.97 19.92,9.68 20.16,9.44C20.33,9.27 20.6,8.88 20.91,8.41C21.42,9.59 21.69,10.88 21.69,12.25C21.69,17.61 17.36,21.97 12,21.97C6.64,21.97 2.31,17.61 2.31,12.25C2.31,6.89 6.64,2.56 12,2.56Z"/></svg>
